icons/notification-alert.svg

<svg width="24" height="24" viewBox="0 0 24 24" fill="none" xmlns="http://www.w3.org/2000/svg">
<path fill-rule="evenodd" clip-rule="evenodd" d="M12.0499 3.59998C8.5641 3.59998 5.69989 6.46419 5.69989 9.94998V13.55C5.69989 13.8415 5.7731 14.1505 5.8775 14.5681C5.8969 14.6457 5.90344 14.7235 5.89847 14.7993C5.91816 15.0919 5.76413 15.3814 5.4854 15.5208C5.38086 15.5731 5.30057 15.6135 5.23459 15.6512C5.20302 15.6692 5.18257 15.6822 5.17047 15.6907L5.16941 15.6914C4.94793 15.9204 4.79999 16.3061 4.79999 16.75C4.79999 17.5358 5.4642 18.2 6.24999 18.2H17.75C18.2011 18.2 18.5921 18.0472 18.8197 17.8196C19.0472 17.5921 19.2 17.2011 19.2 16.75C19.2 16.2462 18.966 15.8667 18.5472 15.5829C18.4176 15.5004 18.3178 15.3806 18.2591 15.2421C18.2117 15.1301 18.1911 15.006 18.2032 14.8796C18.2071 14.8371 18.2147 14.7947 18.2261 14.753C18.3285 14.343 18.3999 14.038 18.3999 13.75V10.15C18.3999 9.73576 18.7357 9.39998 19.1499 9.39998C19.5642 9.39998 19.8999 9.73576 19.8999 10.15V13.75C19.8999 14.0676 19.8505 14.3785 19.79 14.6604C20.3357 15.1693 20.7 15.871 20.7 16.75C20.7 17.4988 20.4528 18.3078 19.8803 18.8803C19.3078 19.4528 18.4988 19.7 17.75 19.7H14.7015C14.3648 20.9579 13.2056 21.9 11.85 21.9C10.4943 21.9 9.33509 20.9579 8.99846 19.7H6.24999C4.63577 19.7 3.29999 18.3642 3.29999 16.75C3.29999 16.0011 3.54718 15.1921 4.11966 14.6196C4.18027 14.559 4.24656 14.5065 4.31017 14.4619C4.24956 14.1797 4.19989 13.8682 4.19989 13.55V9.94998C4.19989 5.63576 7.73568 2.09998 12.0499 2.09998C12.4641 2.09998 12.7999 2.43576 12.7999 2.84998C12.7999 3.26419 12.4641 3.59998 12.0499 3.59998ZM10.6163 19.7C10.8745 20.1161 11.3363 20.4 11.85 20.4C12.3637 20.4 12.8254 20.1161 13.0836 19.7H10.6163ZM14.3 5.04997C14.3 3.53576 15.5358 2.29997 17.05 2.29997C18.5642 2.29997 19.8 3.53576 19.8 5.04997C19.8 6.56419 18.5642 7.79997 17.05 7.79997C15.4112 7.79997 14.3 6.53916 14.3 5.04997ZM17.05 3.79997C16.3642 3.79997 15.8 4.36419 15.8 5.04997C15.8 5.76078 16.2888 6.29997 17.05 6.29997C17.7358 6.29997 18.3 5.73576 18.3 5.04997C18.3 4.36419 17.7358 3.79997 17.05 3.79997Z" fill="black"/>
</svg>

<svg xmlns="http://www.w3.org/2000/svg" fill="none" viewBox="0 0 24 24">
  <path fill="#000" fill-rule="evenodd" d="M12.05 3.6C8.564 3.6 5.7 6.464 5.7 9.95v3.6c0 .291.073.6.178 1.018a.75.75 0 0 1 .02.231.75.75 0 0 1-.413.722 5.447 5.447 0 0 0-.25.13.85.85 0 0 0-.065.04c-.222.23-.37.615-.37 1.059 0 .786.664 1.45 1.45 1.45h11.5c.451 0 .842-.153 1.07-.38.227-.228.38-.619.38-1.07 0-.504-.234-.883-.653-1.167a.752.752 0 0 1-.32-.83c.101-.41.173-.715.173-1.003v-3.6a.75.75 0 1 1 1.5 0v3.6c0 .318-.05.629-.11.91.546.51.91 1.211.91 2.09 0 .749-.247 1.558-.82 2.13-.572.573-1.381.82-2.13.82h-3.049c-.336 1.258-1.495 2.2-2.851 2.2-1.356 0-2.515-.942-2.852-2.2H6.25a2.97 2.97 0 0 1-2.95-2.95c0-.749.247-1.558.82-2.13.06-.061.127-.113.19-.158a4.37 4.37 0 0 1-.11-.912v-3.6c0-4.314 3.536-7.85 7.85-7.85a.75.75 0 0 1 0 1.5Zm-1.434 16.1c.258.416.72.7 1.234.7s.975-.284 1.234-.7h-2.468ZM14.3 5.05a2.756 2.756 0 0 1 2.75-2.75 2.756 2.756 0 0 1 2.75 2.75 2.756 2.756 0 0 1-2.75 2.75c-1.639 0-2.75-1.26-2.75-2.75Zm2.75-1.25c-.686 0-1.25.564-1.25 1.25 0 .71.489 1.25 1.25 1.25.686 0 1.25-.564 1.25-1.25s-.564-1.25-1.25-1.25Z" clip-rule="evenodd"/>
</svg>
